X:0934
T:Miss Jean Kerr's Strathsy.
M:C
L:1/8
Q:1/4=120
I: :: ||
Z:Jack Campin * www.campin.me.uk * 2009
K:G
g|d>Gd>B G>ABg|dG  e/d/c/B/ cAAg   |d<Gd<B G>ABg|b/a/g/f/ ge dBB:|
b|g<dB<b gdBb |g>d e/d/c/B/ cAAb   |g>dBg  dgBg |eBge        dBBb|
  g>dB<b g<dBb|g>d e/d/c/B/ cAAB/c/|dGeB   gBbB |b/a/g/f/ ge dBB|]
<end>
<start>
